X:1
T:A Good Glass of Ale
R:March
C:Jeff Porterfield
L:1/8
M:4/4
Q:1/4=120
K:G
|:GA|:B2Bc BAGA|B2Bdg2fg|e2eg edBG|A2ABA2GA\|
B2Bc BAGA|B2Bdg2ga|bagf edBG|[1A2GAG2GA:|[2A2GAG2ga|]
b2aga2gf|ed efg2ga|b2aga2gf|edBGA2GA|
B2Bc BAGA|B2Bdg2ga|bagf edBG|[1A2GAG2ga:|[2A2GAG4|]
